src/images/twitter_black.svg

<svg fill="#000000" xmlns="http://www.w3.org/2000/svg"  viewBox="0 0 24 24" width="24px" height="24px"><path d="M 24 4.300781 C 23.101563 4.699219 22.199219 5 21.199219 5.101563 C 22.199219 4.5 23 3.5 23.398438 2.398438 C 22.398438 3 21.398438 3.398438 20.300781 3.601563 C 19.300781 2.601563 18 2 16.601563 2 C 13.898438 2 11.699219 4.199219 11.699219 6.898438 C 11.699219 7.300781 11.699219 7.699219 11.800781 8 C 7.699219 7.800781 4.101563 5.898438 1.699219 2.898438 C 1.199219 3.601563 1 4.5 1 5.398438 C 1 7.101563 1.898438 8.601563 3.199219 9.5 C 2.398438 9.398438 1.601563 9.199219 1 8.898438 C 1 8.898438 1 8.898438 1 9 C 1 11.398438 2.699219 13.398438 4.898438 13.800781 C 4.5 13.898438 4.101563 14 3.601563 14 C 3.300781 14 3 14 2.699219 13.898438 C 3.300781 15.898438 5.101563 17.300781 7.300781 17.300781 C 5.601563 18.601563 3.5 19.398438 1.199219 19.398438 C 0.800781 19.398438 0.398438 19.398438 0 19.300781 C 2.199219 20.699219 4.800781 21.5 7.5 21.5 C 16.601563 21.5 21.5 14 21.5 7.5 C 21.5 7.300781 21.5 7.101563 21.5 6.898438 C 22.5 6.199219 23.300781 5.300781 24 4.300781"/></svg>

<svg xmlns="http://www.w3.org/2000/svg" fill="#000000" width="24" height="24"  xmlns:v="https://vecta.io/nano"><path d="M24 4.301c-.898.398-1.801.699-2.801.801 1-.602 1.801-1.602 2.199-2.703-1 .602-2 1-3.098 1.203C19.301 2.602 18 2 16.602 2a4.91 4.91 0 0 0-4.902 4.898c0 .402 0 .801.102 1.102-4.102-.199-7.699-2.102-10.102-5.102C1.199 3.602 1 4.5 1 5.398c0 1.703.898 3.203 2.199 4.102-.801-.102-1.598-.301-2.199-.602V9c0 2.398 1.699 4.398 3.898 4.801-.398.098-.797.199-1.297.199-.301 0-.602 0-.902-.102.602 2 2.402 3.402 4.602 3.402-1.699 1.301-3.801 2.098-6.102 2.098-.398 0-.801 0-1.199-.098C2.199 20.699 4.801 21.5 7.5 21.5c9.102 0 14-7.5 14-14v-.602c1-.699 1.801-1.598 2.5-2.598"/></svg>
